public/texture.svg

<svg width="429" height="521" viewBox="0 0 429 521" fill="none" xmlns="http://www.w3.org/2000/svg">
<g style="mix-blend-mode:color-dodge">
<path d="M242.181 1.00121L242.181 9.43143L203.153 48.4597L203.153 217.899L240.523 255.268L240.523 310.173L207.031 343.665L207.031 437.816L223.102 453.887L223.102 514.179" stroke="#810000" stroke-width="2" stroke-miterlimit="10"/>
<path d="M223.102 514.179C221.522 514.179 220.242 515.459 220.242 517.038C220.242 518.618 221.522 519.898 223.102 519.898C224.681 519.898 225.961 518.618 225.961 517.038C225.961 515.459 224.681 514.179 223.102 514.179Z" stroke="#810000" stroke-width="2" stroke-miterlimit="10"/>
</g>
<g style="mix-blend-mode:color-dodge">
<path d="M338.322 1.00077L338.322 40.4065L314.049 64.6791L314.049 221.17L270.217 265.002L270.217 357.723L254.706 373.233L254.706 481.693" stroke="#810000" stroke-width="2" stroke-miterlimit="10"/>
<path d="M254.706 481.694C253.127 481.694 251.847 482.974 251.847 484.553C251.847 486.133 253.127 487.413 254.706 487.413C256.286 487.413 257.566 486.133 257.566 484.553C257.566 482.974 256.286 481.694 254.706 481.694Z" stroke="#810000" stroke-width="2" stroke-miterlimit="10"/>
</g>
<g style="mix-blend-mode:color-dodge">
<path d="M216.273 1.00088L216.273 111.772L249.914 145.424L249.914 306.181L310.675 366.942L310.675 441.716" stroke="#810000" stroke-width="2" stroke-miterlimit="10"/>
<path d="M310.675 441.715C309.096 441.715 307.815 442.996 307.815 444.575C307.815 446.154 309.096 447.435 310.675 447.435C312.254 447.435 313.535 446.154 313.535 444.575C313.535 442.996 312.254 441.715 310.675 441.715Z" stroke="#810000" stroke-width="2" stroke-miterlimit="10"/>
</g>
<g style="mix-blend-mode:color-dodge">
<path d="M152.389 405.855L152.389 385.106L192.664 344.819L192.664 261.215L237.789 216.09L237.789 117.971L195.935 76.1171L195.935 1.00032" stroke="#810000" stroke-width="2" stroke-miterlimit="10"/>
<path d="M152.389 405.284C150.81 405.284 149.529 406.564 149.529 408.144C149.529 409.723 150.81 411.003 152.389 411.003C153.968 411.003 155.249 409.723 155.249 408.144C155.249 406.564 153.968 405.284 152.389 405.284Z" stroke="#810000" stroke-width="2" stroke-miterlimit="10"/>
</g>
<g style="mix-blend-mode:color-dodge" opacity="0.57">
<path d="M163.107 1.00046L186.944 24.8269L186.944 95.1853L170.301 111.828L170.301 207.798L210.199 247.695L210.199 271.865" stroke="#810000" stroke-miterlimit="10"/>
<path d="M210.199 272.025C208.62 272.025 207.339 273.306 207.339 274.885C207.339 276.464 208.62 277.745 210.199 277.745C211.778 277.745 213.059 276.464 213.059 274.885C213.059 273.306 211.778 272.025 210.199 272.025Z" stroke="#810000" stroke-miterlimit="10"/>
</g>
<g style="mix-blend-mode:color-dodge">
<path d="M69.6081 1.00046L69.6081 94.7277L93.7205 118.84L93.7205 172.281L63.4541 202.536L63.4541 271.865" stroke="#810000" stroke-width="2" stroke-miterlimit="10"/>
<path d="M63.4541 272.025C61.8748 272.025 60.5945 273.306 60.5945 274.885C60.5945 276.464 61.8748 277.745 63.4541 277.745C65.0334 277.745 66.3137 276.464 66.3137 274.885C66.3137 273.306 65.0334 272.025 63.4541 272.025Z" stroke="#810000" stroke-width="2" stroke-miterlimit="10"/>
</g>
<g style="mix-blend-mode:color-dodge">
<path d="M143.787 1.00099L143.787 79.8239L160.316 96.3526L160.316 243.418L110.936 292.786L110.936 368.853" stroke="#810000" stroke-width="2" stroke-miterlimit="10"/>
<path d="M110.936 368.853C109.356 368.853 108.076 370.133 108.076 371.712C108.076 373.291 109.356 374.572 110.936 374.572C112.515 374.572 113.795 373.291 113.795 371.712C113.795 370.133 112.515 368.853 110.936 368.853Z" stroke="#810000" stroke-width="2" stroke-miterlimit="10"/>
</g>
<g style="mix-blend-mode:color-dodge">
<path d="M37.237 1.00096L37.237 71.8055L52.9192 87.4877L52.9192 122.055L18.2833 156.691L18.2833 209.72" stroke="#810000" stroke-width="2" stroke-miterlimit="10"/>
<path d="M18.2834 209.72C16.7041 209.72 15.4238 211 15.4238 212.579C15.4238 214.159 16.7041 215.439 18.2834 215.439C19.8628 215.439 21.1431 214.159 21.1431 212.579C21.1431 211 19.8628 209.72 18.2834 209.72Z" stroke="#810000" stroke-width="2" stroke-miterlimit="10"/>
</g>
<g style="mix-blend-mode:color-dodge">
<path d="M285.053 1.00099L285.053 16.912L268.524 33.4407L268.524 243.418L317.893 292.786L317.893 368.853" stroke="#810000" stroke-miterlimit="10"/>
<path d="M317.893 368.853C316.313 368.853 315.033 370.133 315.033 371.712C315.033 373.291 316.313 374.572 317.893 374.572C319.472 374.572 320.752 373.291 320.752 371.712C320.752 370.133 319.472 368.853 317.893 368.853Z" stroke="#810000" stroke-miterlimit="10"/>
</g>
<g style="mix-blend-mode:color-dodge" opacity="0.57">
<path d="M306.1 1.00082L306.1 78.5426L280.672 103.982L280.672 180.368L319.688 219.385L319.688 263.309" stroke="#810000" stroke-width="2" stroke-miterlimit="10"/>
<path d="M319.688 263.31C318.109 263.31 316.829 264.59 316.829 266.169C316.829 267.749 318.109 269.029 319.688 269.029C321.268 269.029 322.548 267.749 322.548 266.169C322.548 264.59 321.268 263.31 319.688 263.31Z" stroke="#810000" stroke-width="2" stroke-miterlimit="10"/>
</g>
<g style="mix-blend-mode:color-dodge" opacity="0.57">
<path d="M359.232 1.00095L359.232 81.2536L335.119 105.366L335.119 172.281L365.374 202.536L365.374 271.865" stroke="#810000" stroke-miterlimit="10"/>
<path d="M365.374 271.866C363.795 271.866 362.514 273.146 362.514 274.725C362.514 276.305 363.795 277.585 365.374 277.585C366.953 277.585 368.234 276.305 368.234 274.725C368.234 273.146 366.953 271.866 365.374 271.866Z" stroke="#810000" stroke-miterlimit="10"/>
</g>
<g style="mix-blend-mode:color-dodge">
<path d="M228.409 1.00047L228.409 184.932L262.507 219.03L262.507 243.097L226.922 278.682L226.922 394.131L240.614 407.823L240.614 463.643" stroke="#810000" stroke-miterlimit="10"/>
<path d="M238.861 465.29C238.861 464.303 239.661 463.502 240.648 463.502C241.636 463.502 242.436 464.303 242.436 465.29C242.436 466.277 241.636 467.078 240.648 467.078C239.661 467.078 238.861 466.277 238.861 465.29Z" fill="#810000" stroke="#810000"/>
</g>
<g style="mix-blend-mode:color-dodge">
<path d="M256.822 1.00046L256.822 34.3323L297.109 74.6188L297.109 158.223L342.234 203.348L342.234 301.468L300.38 343.321L300.38 418.438" stroke="#810000" stroke-miterlimit="10"/>
<path d="M298.627 420.726C298.627 419.739 299.427 418.938 300.415 418.938C301.402 418.938 302.202 419.739 302.202 420.726C302.202 421.713 301.402 422.514 300.415 422.514C299.427 422.514 298.627 421.713 298.627 420.726Z" fill="#810000" stroke="#810000"/>
</g>
<g style="mix-blend-mode:color-dodge">
<path d="M345.963 1.00087L345.963 10.9638L366.85 31.8506L366.85 137.714L387.576 158.441L387.576 229.245L357.504 259.317L357.504 320.296" stroke="#810000" stroke-width="2" stroke-miterlimit="10"/>
<path d="M355.717 320.296C355.717 319.308 356.517 318.508 357.504 318.508C358.492 318.508 359.292 319.308 359.292 320.296C359.292 321.283 358.492 322.083 357.504 322.083C356.517 322.083 355.717 321.283 355.717 320.296Z" fill="#810000" stroke="#810000"/>
</g>
<g style="mix-blend-mode:color-dodge">
<path d="M380.473 1.00224L380.473 18.9379L402.835 41.3002L402.835 92.8193L427.84 117.824L427.84 174.742L402.549 200.033L402.549 243.099" stroke="#810000" stroke-width="2" stroke-miterlimit="10"/>
<path d="M400.739 243.579C400.739 242.591 401.539 241.791 402.527 241.791C403.514 241.791 404.314 242.591 404.314 243.579C404.314 244.566 403.514 245.366 402.527 245.366C401.539 245.366 400.739 244.566 400.739 243.579Z" fill="#810000" stroke="#810000"/>
</g>
<g style="mix-blend-mode:color-dodge" opacity="0.57">
<path d="M391.591 1.00047L391.591 71.805L375.921 87.4872L375.921 122.054L410.556 156.69L410.556 209.719" stroke="#810000" stroke-miterlimit="10"/>
<path d="M408.769 209.399C408.769 208.412 409.569 207.612 410.556 207.612C411.544 207.612 412.344 208.412 412.344 209.399C412.344 210.387 411.544 211.187 410.556 211.187C409.569 211.187 408.769 210.387 408.769 209.399Z" fill="#810000" stroke="#810000"/>
</g>
<g style="mix-blend-mode:color-dodge" opacity="0.57">
<path d="M245.876 1.00049L245.876 113.613L274.873 142.609L274.873 226.225" stroke="#810000" stroke-miterlimit="10"/>
<path d="M273.085 226.225C273.085 225.238 273.885 224.437 274.872 224.437C275.86 224.437 276.66 225.238 276.66 226.225C276.66 227.212 275.86 228.013 274.872 228.013C273.885 228.013 273.085 227.212 273.085 226.225Z" fill="#810000" stroke="#810000"/>
</g>
<g style="mix-blend-mode:color-dodge" opacity="0.57">
<path d="M129.306 1.00059L129.306 46.8577L110.009 66.1544L110.009 226.225L96.1342 240.1L96.1342 275.457" stroke="#810000" stroke-miterlimit="10"/>
<path d="M94.3465 275.457C94.3465 274.47 95.1468 273.669 96.1342 273.669C97.1215 273.669 97.9219 274.47 97.9219 275.457C97.9219 276.444 97.1215 277.245 96.1342 277.245C95.1468 277.245 94.3465 276.444 94.3465 275.457Z" fill="#810000" stroke="#810000"/>
</g>
<g style="mix-blend-mode:color-dodge">
<path d="M172.006 1.00081L172.006 21.4072L131.731 61.6822L131.731 158.223L86.6059 203.348L86.6058 301.468L128.459 343.322L128.459 439.68" stroke="#810000" stroke-miterlimit="10"/>
<path d="M126.66 439.68C126.66 438.692 127.461 437.892 128.448 437.892C129.435 437.892 130.236 438.692 130.236 439.68C130.236 440.667 129.435 441.467 128.448 441.467C127.461 441.467 126.66 440.667 126.66 439.68Z" fill="#810000" stroke="#810000"/>
</g>
<g style="mix-blend-mode:color-dodge">
<path d="M82.8767 1.00087L82.8767 33.1088L61.99 53.9956L61.99 137.714L41.2519 158.441L41.2519 229.245L71.3352 259.317L71.3352 320.296" stroke="#810000" stroke-miterlimit="10"/>
<path d="M69.5476 320.296C69.5476 319.308 70.348 318.508 71.3353 318.508C72.3227 318.508 73.123 319.308 73.123 320.296C73.123 321.283 72.3227 322.083 71.3353 322.083C70.348 322.083 69.5476 321.283 69.5476 320.296Z" fill="#810000" stroke="#810000"/>
</g>
<g style="mix-blend-mode:color-dodge" opacity="0.57">
<path d="M48.3667 1.00029L48.3667 18.9359L26.0044 41.2982L26.0044 92.8174L0.999775 117.822L0.99977 174.74L26.2789 200.031L26.2789 243.097" stroke="#810000" stroke-miterlimit="10"/>
<path d="M24.3653 243.097C24.3653 242.109 25.1656 241.309 26.153 241.309C27.1403 241.309 27.9407 242.109 27.9407 243.097C27.9407 244.084 27.1403 244.884 26.153 244.884C25.1656 244.884 24.3653 244.084 24.3653 243.097Z" fill="#810000" stroke="#810000"/>
</g>
<g style="mix-blend-mode:color-dodge">
<path d="M98.6049 1.00133L98.6049 16.8094L122.877 41.0819L122.877 221.17L166.71 265.003L166.71 318.947L180.528 332.764L180.528 450.066" stroke="#810000" stroke-miterlimit="10"/>
<path d="M180.528 450.066C178.948 450.066 177.668 451.346 177.668 452.926C177.668 454.505 178.948 455.785 180.528 455.785C182.107 455.785 183.387 454.505 183.387 452.926C183.387 451.346 182.107 450.066 180.528 450.066Z" stroke="#810000" stroke-miterlimit="10"/>
</g>
</svg>

<?xml version="1.0" encoding="UTF-8"?>
<svg xmlns="http://www.w3.org/2000/svg" version="1.1" viewBox="0 0 429 521">
  <defs>
    <style>
      .cls-1 {
        isolation: isolate;
      }

      .cls-2 {
        stroke-width: 2px;
      }

      .cls-2, .cls-3 {
        fill: none;
        stroke-miterlimit: 10;
      }

      .cls-2, .cls-3, .cls-4 {
        stroke: #810000;
      }

      .cls-5 {
        mix-blend-mode: color-dodge;
      }

      .cls-4 {
        fill: #810000;
      }
    </style>
  </defs>
  <!-- Generator: Adobe Illustrator 28.6.0, SVG Export Plug-In . SVG Version: 1.2.0 Build 709)  -->
  <g class="cls-1">
    <g id="Capa_1">
      <g class="cls-5">
        <path class="cls-2" d="M242.2,1v8.4l-39,39v169.4l37.4,37.4v54.9l-33.5,33.5v94.2l16.1,16.1v60.3"/>
        <path class="cls-2" d="M223.1,514.2c-1.6,0-2.9,1.3-2.9,2.9s1.3,2.9,2.9,2.9,2.9-1.3,2.9-2.9-1.3-2.9-2.9-2.9Z"/>
      </g>
      <g class="cls-5">
        <path class="cls-2" d="M338.3,1v39.4l-24.3,24.3v156.5l-43.8,43.8v92.7l-15.5,15.5v108.5"/>
        <path class="cls-2" d="M254.7,481.7c-1.6,0-2.9,1.3-2.9,2.9s1.3,2.9,2.9,2.9,2.9-1.3,2.9-2.9-1.3-2.9-2.9-2.9Z"/>
      </g>
      <g class="cls-5">
        <path class="cls-2" d="M216.3,1v110.8l33.6,33.7v160.8l60.8,60.8v74.8"/>
        <path class="cls-2" d="M310.7,441.7c-1.6,0-2.9,1.3-2.9,2.9s1.3,2.9,2.9,2.9,2.9-1.3,2.9-2.9-1.3-2.9-2.9-2.9Z"/>
      </g>
      <g class="cls-5">
        <path class="cls-2" d="M152.4,405.9v-20.7l40.3-40.3v-83.6l45.1-45.1v-98.1l-41.9-41.9V1"/>
        <path class="cls-2" d="M152.4,405.3c-1.6,0-2.9,1.3-2.9,2.9s1.3,2.9,2.9,2.9,2.9-1.3,2.9-2.9-1.3-2.9-2.9-2.9Z"/>
      </g>
      <g class="cls-5">
        <path class="cls-3" d="M163.1,1l23.8,23.8v70.4l-16.6,16.6v96l39.9,39.9v24.2"/>
        <path class="cls-3" d="M210.2,272c-1.6,0-2.9,1.3-2.9,2.9s1.3,2.9,2.9,2.9,2.9-1.3,2.9-2.9-1.3-2.9-2.9-2.9Z"/>
      </g>
      <g class="cls-5">
        <path class="cls-2" d="M69.6,1v93.7l24.1,24.1v53.4l-30.3,30.3v69.3"/>
        <path class="cls-2" d="M63.5,272c-1.6,0-2.9,1.3-2.9,2.9s1.3,2.9,2.9,2.9,2.9-1.3,2.9-2.9-1.3-2.9-2.9-2.9Z"/>
      </g>
      <g class="cls-5">
        <path class="cls-2" d="M143.8,1v78.8l16.5,16.5v147.1l-49.4,49.4v76.1"/>
        <path class="cls-2" d="M110.9,368.9c-1.6,0-2.9,1.3-2.9,2.9s1.3,2.9,2.9,2.9,2.9-1.3,2.9-2.9-1.3-2.9-2.9-2.9Z"/>
      </g>
      <g class="cls-5">
        <path class="cls-2" d="M37.2,1v70.8l15.7,15.7v34.6l-34.6,34.6v53"/>
        <path class="cls-2" d="M18.3,209.7c-1.6,0-2.9,1.3-2.9,2.9s1.3,2.9,2.9,2.9,2.9-1.3,2.9-2.9-1.3-2.9-2.9-2.9Z"/>
      </g>
      <g class="cls-5">
        <path class="cls-3" d="M285.1,1v15.9l-16.5,16.5v210l49.4,49.4v76.1"/>
        <path class="cls-3" d="M317.9,368.9c-1.6,0-2.9,1.3-2.9,2.9s1.3,2.9,2.9,2.9,2.9-1.3,2.9-2.9-1.3-2.9-2.9-2.9Z"/>
      </g>
      <g class="cls-5">
        <path class="cls-2" d="M306.1,1v77.5l-25.4,25.4v76.4l39,39v43.9"/>
        <path class="cls-2" d="M319.7,263.3c-1.6,0-2.9,1.3-2.9,2.9s1.3,2.9,2.9,2.9,2.9-1.3,2.9-2.9-1.3-2.9-2.9-2.9Z"/>
      </g>
      <g class="cls-5">
        <path class="cls-3" d="M359.2,1v80.3l-24.1,24.1v66.9l30.3,30.3v69.3"/>
        <path class="cls-3" d="M365.4,271.9c-1.6,0-2.9,1.3-2.9,2.9s1.3,2.9,2.9,2.9,2.9-1.3,2.9-2.9-1.3-2.9-2.9-2.9Z"/>
      </g>
      <g class="cls-5">
        <path class="cls-3" d="M228.4,1v183.9l34.1,34.1v24.1l-35.6,35.6v115.4l13.7,13.7v55.8"/>
        <path class="cls-4" d="M238.9,465.3c0-1,.8-1.8,1.8-1.8s1.8.8,1.8,1.8-.8,1.8-1.8,1.8-1.8-.8-1.8-1.8Z"/>
      </g>
      <g class="cls-5">
        <path class="cls-3" d="M256.8,1v33.3l40.3,40.3v83.6l45.1,45.1v98.1l-41.9,41.9v75.1"/>
        <path class="cls-4" d="M298.6,420.7c0-1,.8-1.8,1.8-1.8s1.8.8,1.8,1.8-.8,1.8-1.8,1.8-1.8-.8-1.8-1.8Z"/>
      </g>
      <g class="cls-5">
        <path class="cls-2" d="M346,1v10l20.9,20.9v105.9l20.7,20.7v70.8l-30.1,30.1v61"/>
        <path class="cls-4" d="M355.7,320.3c0-1,.8-1.8,1.8-1.8s1.8.8,1.8,1.8-.8,1.8-1.8,1.8-1.8-.8-1.8-1.8Z"/>
      </g>
      <g class="cls-5">
        <path class="cls-2" d="M380.5,1v17.9l22.4,22.4v51.5l25,25v56.9l-25.3,25.3v43.1"/>
        <path class="cls-4" d="M400.7,243.6c0-1,.8-1.8,1.8-1.8s1.8.8,1.8,1.8-.8,1.8-1.8,1.8-1.8-.8-1.8-1.8Z"/>
      </g>
      <g class="cls-5">
        <path class="cls-3" d="M391.6,1v70.8l-15.7,15.7v34.6l34.6,34.6v53"/>
        <path class="cls-4" d="M408.8,209.4c0-1,.8-1.8,1.8-1.8s1.8.8,1.8,1.8-.8,1.8-1.8,1.8-1.8-.8-1.8-1.8Z"/>
      </g>
      <g class="cls-5">
        <path class="cls-3" d="M245.9,1v112.6l29,29v83.6"/>
        <path class="cls-4" d="M273.1,226.2c0-1,.8-1.8,1.8-1.8s1.8.8,1.8,1.8-.8,1.8-1.8,1.8-1.8-.8-1.8-1.8Z"/>
      </g>
      <g class="cls-5">
        <path class="cls-3" d="M129.3,1v45.9l-19.3,19.3v160.1l-13.9,13.9v35.4"/>
        <path class="cls-4" d="M94.3,275.5c0-1,.8-1.8,1.8-1.8s1.8.8,1.8,1.8-.8,1.8-1.8,1.8-1.8-.8-1.8-1.8Z"/>
      </g>
      <g class="cls-5">
        <path class="cls-3" d="M172,1v20.4l-40.3,40.3v96.5l-45.1,45.1v98.1s41.9,41.9,41.9,41.9v96.4"/>
        <path class="cls-4" d="M126.7,439.7c0-1,.8-1.8,1.8-1.8s1.8.8,1.8,1.8-.8,1.8-1.8,1.8-1.8-.8-1.8-1.8Z"/>
      </g>
      <g class="cls-5">
        <path class="cls-3" d="M82.9,1v32.1l-20.9,20.9v83.7l-20.7,20.7v70.8l30.1,30.1v61"/>
        <path class="cls-4" d="M69.5,320.3c0-1,.8-1.8,1.8-1.8s1.8.8,1.8,1.8-.8,1.8-1.8,1.8-1.8-.8-1.8-1.8Z"/>
      </g>
      <g class="cls-5">
        <path class="cls-3" d="M48.4,1v17.9l-22.4,22.4v51.5L1,117.8v56.9s25.3,25.3,25.3,25.3v43.1"/>
        <path class="cls-4" d="M24.4,243.1c0-1,.8-1.8,1.8-1.8s1.8.8,1.8,1.8-.8,1.8-1.8,1.8-1.8-.8-1.8-1.8Z"/>
      </g>
      <g class="cls-5">
        <path class="cls-3" d="M98.6,1v15.8l24.3,24.3v180.1l43.8,43.8v53.9l13.8,13.8v117.3"/>
        <path class="cls-3" d="M180.5,450.1c-1.6,0-2.9,1.3-2.9,2.9s1.3,2.9,2.9,2.9,2.9-1.3,2.9-2.9-1.3-2.9-2.9-2.9Z"/>
      </g>
    </g>
  </g>
</svg>
